<?xml version="1.0" encoding="UTF-8"?>
<map version="1.10" tiledversion="1.11.2" orientation="orthogonal" renderorder="right-down" width="10" height="10" tilewidth="128" tileheight="128" infinite="0" nextlayerid="2" nextobjectid="1">
 <tileset firstgid="1" name="border_top_left" tilewidth="128" tileheight="128" tilecount="4" columns="2">
  <image source="border_top_left.png" width="256" height="256"/>
 </tileset>
 <tileset firstgid="5" name="V3_border_top_right" tilewidth="128" tileheight="128" tilecount="4" columns="2">
  <image source="border_top_right.png" width="256" height="256"/>
 </tileset>
 <tileset firstgid="9" name="V3_border_left" tilewidth="128" tileheight="128" tilecount="4" columns="2">
  <image source="border_left.png" width="256" height="256"/>
 </tileset>
 <tileset firstgid="13" name="V3_border_bottom" tilewidth="128" tileheight="128" tilecount="4" columns="2">
  <image source="border_bottom.png" width="256" height="256"/>
 </tileset>
 <tileset firstgid="17" name="V3_border_bottom_left" tilewidth="128" tileheight="128" tilecount="4" columns="2">
  <image source="border_bottom_left.png" width="256" height="256"/>
 </tileset>
 <tileset firstgid="21" name="V3_border_bottom_right" tilewidth="128" tileheight="128" tilecount="4" columns="2">
  <image source="border_bottom_right.png" width="256" height="256"/>
 </tileset>
 <tileset firstgid="25" name="V3_border_right" tilewidth="128" tileheight="128" tilecount="4" columns="2">
  <image source="border_right.png" width="256" height="256"/>
 </tileset>
 <layer id="1" name="Tile Layer 1" width="10" height="10">
  <data encoding="csv">
1,2,0,0,0,0,0,0,5,6,
3,0,0,0,0,0,0,0,0,26,
9,0,0,0,0,0,0,0,0,26,
9,0,0,0,0,0,0,0,0,26,
9,0,0,0,0,0,0,0,0,26,
9,0,0,0,0,0,0,0,0,26,
9,0,0,0,0,0,0,0,0,26,
9,0,0,0,0,0,0,0,0,26,
9,0,0,0,0,0,0,0,0,26,
19,16,15,16,15,16,15,16,15,24
</data>
 </layer>
</map>
